assets/features/channel/southeast-asia1/RHB.svg

<svg width="80" height="80" viewBox="0 0 80 80" fill="none" xmlns="http://www.w3.org/2000/svg">
<rect width="80" height="80" rx="8" fill="#81CDE5"/>
<path d="M19.2753 33.5349C18.6079 33.5349 17.9404 34.2019 17.8069 35.069L17.273 38.871C17.1395 39.7381 17.6067 40.4051 18.2741 40.4051C18.9416 40.4051 19.609 39.7381 19.7425 38.871L20.2765 35.069C20.41 34.2686 19.9428 33.5349 19.2753 33.5349ZM12 48.8762L13.8022 36.203C14.2026 33.4015 17.1394 30.9336 20.3433 30.9336C23.5471 30.9336 25.0822 33.1347 24.7485 35.3359L24.4815 37.2035C24.2813 38.7376 23.1466 40.2717 21.0775 41.339L23.1466 44.8741C23.4136 45.2743 23.4803 45.8746 23.4136 46.4749C23.2133 47.8089 22.2121 48.9429 21.0775 48.9429C20.4767 48.9429 20.0095 48.6093 19.7425 48.1424L16.6722 42.8731L16.1383 46.5416C15.938 47.8756 14.9368 48.9429 13.8689 48.9429H12V48.8762Z" fill="#005FA9"/>
<path d="M26.8178 33.735C27.018 32.2009 28.2194 30.9336 29.4876 30.9336C30.7558 30.9336 31.5567 32.2009 31.3565 33.735L30.4888 40.1383H32.9584L33.8928 33.735C34.0931 32.2009 35.2945 30.9336 36.5627 30.9336C37.8309 30.9336 38.6318 32.2009 38.4316 33.735L36.6962 46.008C36.4959 47.5421 35.2945 48.8095 34.0263 48.8095C32.7582 48.8095 31.9572 47.5421 32.1574 46.008L32.6914 42.006H30.1551L29.6211 46.008C29.4209 47.5421 28.2194 48.8095 26.9513 48.8095H24.6819L26.8178 33.735Z" fill="#005FA9"/>
<path d="M45.7736 33.5345C44.9726 33.5345 44.2384 34.335 44.1049 35.3355L43.838 37.0697C43.6377 38.0702 44.2384 38.8706 45.0394 38.8706C45.8403 38.8706 46.5745 38.0702 46.708 37.0697L46.975 35.3355C47.1085 34.4017 46.5078 33.5345 45.7736 33.5345ZM44.7724 40.0712C43.9714 40.0712 43.2372 40.8717 43.1038 41.8722L42.77 44.4068C42.6365 45.4073 43.1705 46.2077 43.9047 46.2077C44.7057 46.2077 45.4399 45.4073 45.5734 44.4068L45.9071 41.8722C46.1073 40.8717 45.5734 40.0712 44.7724 40.0712ZM50.913 36.0692C50.7128 37.2698 50.0453 38.4037 48.9107 39.4709C49.7116 40.2713 50.0453 41.4053 49.8451 42.4725L49.7116 43.5397C49.3111 46.3411 46.3743 48.8091 43.1705 48.8091H38.1646L40.0334 36.0692C40.4339 33.2677 43.3707 30.7998 46.5746 30.7998C49.7784 30.7998 51.3135 33.0009 50.9798 35.2021L50.913 36.0692Z" fill="#005FA9"/>
<path d="M68.0001 39.8714L59.7903 48.0756L51.5806 39.8714L59.7903 31.7339L68.0001 39.8714Z" fill="#E63137"/>
</svg>

<svg xmlns="http://www.w3.org/2000/svg" width="80" height="80" fill="none" viewBox="0 0 80 80"><rect width="80" height="80" fill="#81cde5" rx="8"/><path fill="#005fa9" d="M19.275 33.535c-.667 0-1.335.667-1.468 1.534l-.534 3.802c-.133.867.334 1.534 1.001 1.534.668 0 1.335-.667 1.468-1.534l.534-3.802c.134-.8-.333-1.534-1-1.534M12 48.876l1.802-12.673c.4-2.802 3.337-5.27 6.541-5.27s4.74 2.202 4.406 4.403l-.267 1.867c-.2 1.535-1.335 3.069-3.404 4.136l2.069 3.535c.267.4.333 1 .267 1.6-.2 1.335-1.202 2.469-2.337 2.469-.6 0-1.068-.334-1.335-.8l-3.07-5.27-.534 3.669c-.2 1.334-1.201 2.4-2.27 2.4H12zm14.818-15.141c.2-1.534 1.401-2.801 2.67-2.801s2.069 1.267 1.869 2.801l-.868 6.403h2.47l.934-6.403c.2-1.534 1.401-2.801 2.67-2.801s2.069 1.267 1.869 2.801l-1.736 12.273c-.2 1.534-1.401 2.801-2.67 2.801s-2.069-1.267-1.869-2.801l.534-4.002h-2.536l-.534 4.002c-.2 1.534-1.402 2.801-2.67 2.801h-2.27zm18.956-.2c-.801 0-1.536.8-1.67 1.8l-.266 1.735c-.2 1 .4 1.8 1.201 1.8s1.535-.8 1.669-1.8l.267-1.734c.133-.934-.467-1.801-1.201-1.801m-1.002 6.536c-.8 0-1.535.8-1.668 1.801l-.334 2.535c-.134 1 .4 1.8 1.135 1.8.8 0 1.535-.8 1.668-1.8l.334-2.535c.2-1-.334-1.8-1.135-1.8m6.141-4.002q-.3 1.8-2.002 3.402c.8.8 1.134 1.934.934 3.002l-.133 1.067c-.4 2.801-3.338 5.27-6.542 5.27h-5.005l1.868-12.74c.4-2.802 3.338-5.27 6.542-5.27s4.738 2.2 4.405 4.402z"/><path fill="#e63137" d="m68 39.871-8.21 8.205-8.21-8.205 8.21-8.137z"/></svg>
